X:2854
T:Charley Over The Water. JC.153
T:Over The Water To Charlie,aka. JC.153
M:6/8
L:1/8
Q:120
S:John Clare,Poet,Helpstone (1793-1864)
R:Jig
O:England
A:Northamptonshire
N:
Z:P Headford
K:G
G2d dBd|ege dBG|G2d dBd|e3g3|!
G2d dBd|ege dBG|gbg faf|e3g3:|!
gbg faf|ege dBG|(g/a/bg) (f/g/af)|e3g3|!
gbg faf|ege dBG|G2d dBd|e3g3|]


